X: 39
T:Blodau Ceiswyn
T:Ceiswyn's Flowers
M:2/4
L:1/8
Q:220
S:Cadw Twmpath Collection
R:Polka
A:Wales
Z:brian_martin12345@yahoo.com
K:G
G/A/|BGB2|cA Ad/c/|BG GA|F3G/A/|
BG AG|BG Ad/c/|Be A^c|d3:||
B/c/|dBzd|cAzc|BA GA|AF ED|
EG FA|GB Ac|B2A>G|G3:||
